X:58
T:Ramalinho
R:---
C:Portugal
I:abc2nwc
Z:Transcrit et/ou corrig? par Michel BELLON - 2007-09-08
Z:Pour toute observation mailto:galouvielle@free.fr
M:2/4
L:1/16
K:C
g2g2 g3e|g2e2 d4|g2g2 g3f|e2d2 c4|g2g2 g3e|
g2e2 d4|g2g2 g3f|e2d2 c4 ||c2d2 e2fe|d2c2 d2B2|B2c2 d2ed|
c2B2 c4|c2d2 e2fe|d2c2 d2B2|B2c2 d2ed|c2B2 c4|]
<end>
<start>
